X: 43097
T: Winding Road, The
R: jig
M: 6/8
K: Gmajor
DBB Dcc|DBB c2e|dBG FGA|BGB AFD|
DBB Dcc|DBB c2e|dBG FGA|1 BGG {GA}G2E:|2 BGG G2G||
GBd efg|fed cAF|G2G g2g|afd cAF|
DBB Dcc|DBB c2d|dBG FGA|1 BGGG2G|2 BGGG2E||

